svg/device/air_condition_line.svg

<?xml version="1.0" encoding="UTF-8"?>
<svg width="24px" height="24px" viewBox="0 0 24 24" version="1.1" xmlns="http://www.w3.org/2000/svg" xmlns:xlink="http://www.w3.org/1999/xlink">
    <title>air_condition_line</title>
    <g id="Icon" stroke="none" stroke-width="1" fill="none" fill-rule="evenodd">
        <g id="Device" transform="translate(-48.000000, -288.000000)">
            <g id="air_condition_line" transform="translate(48.000000, 288.000000)">
                <path d="M24,0 L24,24 L0,24 L0,0 L24,0 Z M12.5935,23.2578 L12.5819,23.2595 L12.5109,23.295 L12.4919,23.2987 L12.4767,23.295 L12.4057,23.2595 C12.3958,23.2564 12.387,23.259 12.3821,23.2649 L12.378,23.2758 L12.3609,23.7031 L12.3659,23.7235 L12.3769,23.7357 L12.4805,23.8097 L12.4953,23.8136 L12.5071,23.8097 L12.6107,23.7357 L12.6233,23.7197 L12.6267,23.7031 L12.6096,23.2758 C12.6076,23.2657 12.601,23.2593 12.5935,23.2578 Z M12.8584,23.1453 L12.8445,23.1473 L12.6598,23.2397 L12.6499,23.2499 L12.6472,23.2611 L12.6651,23.6906 L12.6699,23.7034 L12.6784,23.7105 L12.8793,23.8032 C12.8914,23.8069 12.9022,23.803 12.9078,23.7952 L12.9118,23.7812 L12.8777,23.1665 C12.8753,23.1546 12.8674,23.147 12.8584,23.1453 Z M12.143,23.1473 C12.1332,23.1424 12.1222,23.1453 12.1156,23.1526 L12.1099,23.1665 L12.0758,23.7812 C12.0751,23.7927 12.0828,23.8019 12.0926,23.8046 L12.1083,23.8032 L12.3092,23.7105 L12.3186,23.7024 L12.3225,23.6906 L12.3404,23.2611 L12.3372,23.2485 L12.3278,23.2397 L12.143,23.1473 Z" id="MingCute" fill-rule="nonzero"></path>
                <path d="M19,6 C20.6569,6 22,7.34315 22,9 L22,15 C22,16.6569 20.6569,18 19,18 L5,18 C3.34315,18 2,16.6569 2,15 L2,9 C2,7.34315 3.34315,6 5,6 L19,6 Z M19,8 L5,8 C4.48716857,8 4.06449347,8.38604429 4.0067278,8.88337975 L4,9 L4,15 C4,15.51285 4.38604429,15.9355092 4.88337975,15.9932725 L5,16 L5,14 C5,13.48715 5.38604429,13.0644908 5.88337975,13.0067275 L6,13 L18,13 C18.51285,13 18.9355092,13.386027 18.9932725,13.8833761 L19,14 L19,16 C19.51285,16 19.9355092,15.613973 19.9932725,15.1166239 L20,15 L20,9 C20,8.48716857 19.613973,8.06449347 19.1166239,8.0067278 L19,8 Z M17,15 L7,15 L7,16 L17,16 L17,15 Z M17,9 C17.5523,9 18,9.44772 18,10 C18,10.5523 17.5523,11 17,11 C16.4477,11 16,10.5523 16,10 C16,9.44772 16.4477,9 17,9 Z" id="形状" fill="#09244B"></path>
            </g>
        </g>
    </g>
</svg>

<svg xmlns="http://www.w3.org/2000/svg" width="24" height="24"><g fill="none" fill-rule="evenodd"><path d="M24 0v24H0V0h24ZM12.594 23.258l-.012.002-.071.035-.02.004-.014-.004-.071-.036c-.01-.003-.019 0-.024.006l-.004.01-.017.428.005.02.01.013.104.074.015.004.012-.004.104-.074.012-.016.004-.017-.017-.427c-.002-.01-.009-.017-.016-.018Zm.264-.113-.014.002-.184.093-.01.01-.003.011.018.43.005.012.008.008.201.092c.012.004.023 0 .029-.008l.004-.014-.034-.614c-.003-.012-.01-.02-.02-.022Zm-.715.002a.023.023 0 0 0-.027.006l-.006.014-.034.614c0 .012.007.02.017.024l.015-.002.201-.093.01-.008.003-.011.018-.43-.003-.012-.01-.01-.184-.092Z"/><path fill="#09244B" d="M19 6a3 3 0 0 1 3 3v6a3 3 0 0 1-3 3H5a3 3 0 0 1-3-3V9a3 3 0 0 1 3-3h14Zm0 2H5a1 1 0 0 0-.993.883L4 9v6a1 1 0 0 0 .883.993L5 16v-2a1 1 0 0 1 .883-.993L6 13h12a1 1 0 0 1 .993.883L19 14v2a1 1 0 0 0 .993-.883L20 15V9a1 1 0 0 0-.883-.993L19 8Zm-2 7H7v1h10v-1Zm0-6a1 1 0 1 1 0 2 1 1 0 0 1 0-2Z"/></g></svg>
